assets/svg/logo/logo_button_close.svg

<svg width="50" height="50" viewBox="0 0 50 50" fill="none" xmlns="http://www.w3.org/2000/svg">
<path d="M4.41113 35.6494C-1.47038 29.7679 -1.47038 20.2321 4.41113 14.3506L14.3506 4.41113C20.2321 -1.47038 29.7679 -1.47038 35.6494 4.41113L45.5889 14.3506C51.4704 20.2321 51.4704 29.7679 45.5889 35.6494L35.6494 45.5889C29.7679 51.4704 20.2321 51.4704 14.3506 45.5889L4.41113 35.6494Z" fill="#0166FF"/>
<path d="M25 25L19 19M25 25L31 31M25 25L31 19M25 25L19 31" stroke="white" stroke-width="1.5" stroke-linecap="round" stroke-linejoin="round"/>
</svg>

<svg xmlns="http://www.w3.org/2000/svg" width="50" height="50" fill="none"><path fill="#0166FF" d="M4.411 35.65c-5.881-5.882-5.881-15.418 0-21.3l9.94-9.939c5.881-5.881 15.417-5.881 21.298 0l9.94 9.94c5.881 5.881 5.881 15.417 0 21.298l-9.94 9.94c-5.881 5.881-15.417 5.881-21.298 0z"/><path stroke="#fff" stroke-linecap="round" stroke-linejoin="round" stroke-width="1.5" d="m25 25-6-6m6 6 6 6m-6-6 6-6m-6 6-6 6"/></svg>
